X:45
T:Partons, Partons, Chers Compagnons
M:C
L:1/8
N:Mouvt de marche
N:Decide
N:La Bourre 4th edition 1929, page 54
Z:Steve Mansfield www.lesession.co.uk May 2012
K:Gm
G2 B A G A B c | d4 (dc) f e |
(d2 c) B (c2 d) c | (BA) G4 | d2 d > d d2 d2 |
d > e f e d2 c2 | B3 B e d c B |
A4 G2 B c | d > e d c B2 A2 |
d > e d c B2 A2 | G8 |]

